X:3618
L:1/8
M:3/4
K:G
 d3 d (3gfe | e2 d2 z2 | c3 c (3edc | c2 B2 z2 | AB c4 | Bc d4 | def gfe dcB | B2 A2 z2 || 
 d2 FFFF | F2 DFAc | B2 GGGG | G4 d2 | e3 gfg | d3 fgd | (3edc B2 TA2 | G6 ||

